static/linkedin.svg

<?xml version="1.0" encoding="UTF-8"?>
<svg width="24" height="24" viewBox="0 0 24 24" fill="none" xmlns="http://www.w3.org/2000/svg">
<path fill-rule="evenodd" clip-rule="evenodd" d="M3.7402 3.89737C4.72468 2.84117 6.12669 2.25 7.78216 2.25H16.2169C17.8762 2.25 19.2788 2.84084 20.2629 3.89765C21.2413 4.94841 21.75 6.39889 21.75 8.02638V15.9736C21.75 17.6011 21.2413 19.0516 20.2627 20.1024C19.2785 21.1592 17.8756 21.75 16.2159 21.75H7.78216C6.1228 21.75 4.72038 21.1591 3.73657 20.1023C2.75842 19.0515 2.25 17.601 2.25 15.9736V8.02638C2.25 6.39806 2.76117 4.94771 3.7402 3.89737ZM4.83745 4.92012C4.16024 5.64666 3.75 6.70951 3.75 8.02638V15.9736C3.75 17.2914 4.15861 18.3541 4.83451 19.0802C5.50475 19.8003 6.49341 20.25 7.78216 20.25H16.2159C17.5052 20.25 18.4944 19.8002 19.165 19.0801C19.8412 18.354 20.25 17.2913 20.25 15.9736V8.02638C20.25 6.70868 19.8412 5.64597 19.1651 4.91984C18.4946 4.19975 17.5056 3.75 16.2169 3.75H7.78216C6.49828 3.75 5.50921 4.19943 4.83745 4.92012Z" fill="#FFFFFF"></path>
<path fill-rule="evenodd" clip-rule="evenodd" d="M7.88281 10.2422C8.29703 10.2422 8.63281 10.578 8.63281 10.9922V15.8005C8.63281 16.2147 8.29703 16.5505 7.88281 16.5505C7.4686 16.5505 7.13281 16.2147 7.13281 15.8005V10.9922C7.13281 10.578 7.4686 10.2422 7.88281 10.2422Z" fill="#FFFFFF"></path>
<path fill-rule="evenodd" clip-rule="evenodd" d="M13.6935 10.6484C12.7097 10.6484 11.9111 11.447 11.9111 12.4308V15.801C11.9111 16.2152 11.5753 16.551 11.1611 16.551C10.7469 16.551 10.4111 16.2152 10.4111 15.801V12.4308C10.4111 10.6186 11.8813 9.14844 13.6935 9.14844C15.5071 9.14844 16.9759 10.6188 16.9759 12.4308V15.801C16.9759 16.2152 16.6402 16.551 16.2259 16.551C15.8117 16.551 15.4759 16.2152 15.4759 15.801V12.4308C15.4759 11.4468 14.6782 10.6484 13.6935 10.6484Z" fill="#FFFFFF"></path>
<path fill-rule="evenodd" clip-rule="evenodd" d="M7.02441 8.30807C7.02441 7.83398 7.40868 7.44922 7.88324 7.44922C8.35721 7.44922 8.74214 7.83338 8.74214 8.30807C8.74214 8.78276 8.35722 9.16693 7.88324 9.16693C7.40866 9.16693 7.02441 8.78216 7.02441 8.30807Z" fill="#FFFFFF"></path>
</svg>

<svg xmlns="http://www.w3.org/2000/svg" width="24" height="24" fill="none" viewBox="0 0 24 24">
  <path fill="#FFF" fill-rule="evenodd" d="M3.74 3.897C4.725 2.841 6.127 2.25 7.782 2.25h8.435c1.66 0 3.062.59 4.046 1.648.978 1.05 1.487 2.5 1.487 4.128v7.948c0 1.627-.509 3.078-1.487 4.128-.985 1.057-2.387 1.648-4.047 1.648H7.782c-1.66 0-3.062-.59-4.045-1.648-.979-1.05-1.487-2.501-1.487-4.128V8.026c0-1.628.511-3.078 1.49-4.129ZM4.837 4.92C4.16 5.647 3.75 6.71 3.75 8.026v7.948c0 1.317.409 2.38 1.085 3.106.67.72 1.658 1.17 2.947 1.17h8.434c1.29 0 2.278-.45 2.949-1.17.676-.726 1.085-1.789 1.085-3.106V8.026c0-1.317-.409-2.38-1.085-3.106-.67-.72-1.66-1.17-2.948-1.17H7.782c-1.284 0-2.273.45-2.945 1.17Z" clip-rule="evenodd"/>
  <path fill="#FFF" fill-rule="evenodd" d="M7.883 10.242a.75.75 0 0 1 .75.75V15.8a.75.75 0 0 1-1.5 0v-4.808a.75.75 0 0 1 .75-.75Zm5.811.406c-.984 0-1.783.799-1.783 1.783v3.37a.75.75 0 0 1-1.5 0v-3.37a3.283 3.283 0 0 1 6.565 0v3.37a.75.75 0 1 1-1.5 0v-3.37c0-.984-.798-1.783-1.783-1.783Zm-6.67-2.34a.859.859 0 1 1 1.718 0 .859.859 0 0 1-1.718 0Z" clip-rule="evenodd"/>
</svg>
